icons/battery-charge-line.svg

<svg viewBox="0 0 24 24" fill="currentColor" xmlns="http://www.w3.org/2000/svg"><path d="M8 19H3C2.44772 19 2 18.5523 2 18V6C2 5.44772 2.44772 5 3 5H9.625L8.45833 7H4V17H8V19ZM12.375 19L13.5417 17H18V7H14V5H19C19.5523 5 20 5.44772 20 6V18C20 18.5523 19.5523 19 19 19H12.375ZM21 9H23V15H21V9ZM12 11H15L10 19V13H7L12 5V11Z"/></svg>

<svg xmlns="http://www.w3.org/2000/svg" viewBox="0 0 24 24">
    <g>
        <path fill="none" d="M0 0h24v24H0z"/>
        <path d="M8 19H3a1 1 0 0 1-1-1V6a1 1 0 0 1 1-1h6.625L8.458 7H4v10h4v2zm4.375 0l1.167-2H18V7h-4V5h5a1 1 0 0 1 1 1v12a1 1 0 0 1-1 1h-6.625zM21 9h2v6h-2V9zm-9 2h3l-5 8v-6H7l5-8v6z"/>
    </g>
</svg>
